X:1
T:Title
%%score ( 1 2 ) { 3 | 4 }
L:1/8
Q:1/4=100
M:4/4
K:G
V:1 treble nm="Bright Piano"
V:2 treble 
V:3 bass nm="Bright Piano"
V:4 bass 
V:1
 [GB]2 [DG]2 [B,D]2 [CE]2 | [B,D]2 [B,G]2 [DB]2 z2 | [DB]3 [DB] [CA]2 [B,G]2 | [CG]4 [CF]2 z2 | %4
 [FA]2 [=F^G]2 [^FA]2 [=GB]2 | [Fc]3 [FA] [FA]2 z2 | z2 .d2 z4 | [FA]4 G2 z2 | %8
 [FA]2 [DF][EG] [FA]2 [Fd]2 | [Gd]3 [G^c] [Gc]2 z2 | [Ge]2 [G^c]2 G-[GB]E-[EG] | [EG]4 [DF]2 z2 | %12
 [Ac]2 [Ac]2 [Fd]2 [FA]2 | [Gc]2 [GB]2 [Ge]4 | [Gd]2 dc [GB]2 [FA]2 | [FA]4 G2 z2 |] %16
V:2
 x8 | x8 | x8 | x8 | x8 | x8 | [Gd]2 A-[Ac] [GB]2 [FA]2 | x8 | x8 | x8 | z4 .A2 .A2 | x8 | x8 | %13
 x8 | z2 F2 z4 | x8 |] %16
V:3
 D2 B,2 G,2 G,2 | G,2 D,2 G,2 z2 | G,3 G, F,2 G,2 | A,4 A,2 z2 | C2 C2 C2 B,2 | A,3 C C2 z2 | %6
 B,2 D2 D2 C2 | C4 B,2 z2 | D2 A,2 D2 A,2 | A,3 A, A,2 z2 | ^C2 A,2 C2 A,2 | A,4 A,2 z2 | %12
 F,2 F,2 A,2[K:treble] D2 | D2 D2 C4 | B,2 A,D D2 C2 | C4 B,2 z2 |] %16
V:4
 G,,2 G,,2 G,,2 C,2 | G,,2 G,,2 G,,2 z2 | G,,3 G,, D,2 D,2 | D,4 D,2 z2 | D,2 D,2 D,2 D,2 | %5
 D,3 D, D,2 z2 | G,2 F,2 G,2 D,2 | D,4 G,2 z2 | D,2 D,2 D,2 D,2 | E,3 E, E,2 z2 | %10
 A,,2 A,,2 A,,2 ^C,2 | ^C,4 D,2 z2 | D,2 D,2 D,2 D,2 | G,2 G,2 C,4 | G,,2 D,2 D,2 D,2 | %15
 D,4 G,2 z2 |] %16

